svg/color/apechain.svg

<?xml version="1.0" encoding="UTF-8"?>
<svg xmlns="http://www.w3.org/2000/svg" xmlns:xlink="http://www.w3.org/1999/xlink" width="32px" height="32px" viewBox="0 0 32 32" version="1.1">
<g id="surface1">
<path style=" stroke:none;fill-rule:nonzero;fill:rgb(0%,32.941177%,98.039216%);fill-opacity:1;" d="M 22.511719 1.363281 C 22.570312 1.386719 22.628906 1.414062 22.6875 1.4375 C 24.292969 2.144531 25.742188 3.140625 26.996094 4.359375 C 27.105469 4.460938 27.21875 4.558594 27.332031 4.652344 C 27.480469 4.78125 27.617188 4.910156 27.746094 5.058594 C 27.859375 5.195312 27.972656 5.324219 28.09375 5.453125 C 28.738281 6.140625 29.292969 6.933594 29.765625 7.746094 C 29.8125 7.828125 29.859375 7.910156 29.90625 7.992188 C 31.339844 10.421875 32.03125 13.167969 32.019531 15.976562 C 32.019531 16.035156 32.019531 16.09375 32.019531 16.152344 C 32.007812 19.472656 30.988281 22.6875 29.023438 25.378906 C 28.996094 25.414062 28.972656 25.449219 28.945312 25.484375 C 28.597656 25.957031 28.222656 26.390625 27.816406 26.816406 C 27.660156 26.976562 27.660156 26.976562 27.550781 27.132812 C 27.511719 27.183594 27.511719 27.183594 27.472656 27.234375 C 27.433594 27.234375 27.390625 27.234375 27.347656 27.234375 C 27.328125 27.296875 27.308594 27.355469 27.285156 27.417969 C 27.195312 27.511719 27.195312 27.511719 27.078125 27.609375 C 26.875 27.78125 26.679688 27.957031 26.488281 28.140625 C 23.433594 30.914062 19.15625 32.175781 15.085938 31.992188 C 13.148438 31.882812 11.261719 31.410156 9.488281 30.636719 C 9.445312 30.617188 9.398438 30.601562 9.351562 30.582031 C 7.09375 29.601562 4.96875 27.953125 3.472656 25.996094 C 3.425781 25.9375 3.378906 25.878906 3.328125 25.816406 C 0.714844 22.542969 -0.378906 18.238281 0.0742188 14.105469 C 0.300781 12.261719 0.835938 10.449219 1.675781 8.789062 C 1.699219 8.738281 1.726562 8.6875 1.75 8.636719 C 2.757812 6.667969 4.25 4.8125 6.015625 3.464844 C 6.074219 3.417969 6.074219 3.417969 6.136719 3.371094 C 10.808594 -0.238281 17.101562 -0.992188 22.511719 1.363281 Z M 22.511719 1.363281 "/>
<path style=" stroke:none;fill-rule:nonzero;fill:rgb(99.215686%,99.215686%,99.607843%);fill-opacity:1;" d="M 14.203125 10.273438 C 17.675781 10.273438 17.675781 10.273438 18.328125 10.820312 C 18.890625 11.449219 18.933594 12.160156 18.9375 12.96875 C 18.9375 13.089844 18.9375 13.089844 18.9375 13.210938 C 18.9375 13.378906 18.9375 13.546875 18.9375 13.714844 C 18.9375 13.929688 18.9375 14.140625 18.941406 14.355469 C 18.941406 14.5625 18.941406 14.769531 18.941406 14.972656 C 18.945312 15.050781 18.945312 15.125 18.945312 15.203125 C 18.941406 15.816406 18.851562 16.496094 18.453125 16.992188 C 17.75 17.671875 17.113281 17.640625 16.125 17.640625 C 16.125 19.109375 16.125 20.582031 16.125 22.097656 C 15.488281 22.097656 14.855469 22.097656 14.203125 22.097656 C 14.203125 18.195312 14.203125 14.292969 14.203125 10.273438 Z M 14.203125 10.273438 "/>
<path style=" stroke:none;fill-rule:nonzero;fill:rgb(99.215686%,99.215686%,99.607843%);fill-opacity:1;" d="M 8.558594 10.273438 C 9.292969 10.273438 10.03125 10.273438 10.789062 10.273438 C 10.976562 11.730469 11.160156 13.183594 11.320312 14.640625 C 11.421875 15.535156 11.53125 16.429688 11.648438 17.320312 C 11.773438 18.289062 11.886719 19.257812 11.992188 20.226562 C 12 20.285156 12.003906 20.339844 12.011719 20.398438 C 12.023438 20.503906 12.035156 20.605469 12.046875 20.710938 C 12.066406 20.90625 12.089844 21.09375 12.128906 21.289062 C 12.164062 21.554688 12.15625 21.828125 12.15625 22.097656 C 11.542969 22.097656 10.925781 22.097656 10.292969 22.097656 C 10.269531 21.785156 10.242188 21.472656 10.214844 21.160156 C 10.207031 21.054688 10.195312 20.949219 10.1875 20.84375 C 10.175781 20.691406 10.160156 20.539062 10.148438 20.386719 C 10.144531 20.316406 10.144531 20.316406 10.136719 20.242188 C 10.117188 20.011719 10.109375 19.789062 10.109375 19.558594 C 9.78125 19.558594 9.453125 19.558594 9.117188 19.558594 C 9.097656 19.820312 9.078125 20.078125 9.058594 20.339844 C 9.054688 20.414062 9.046875 20.484375 9.042969 20.558594 C 9.035156 20.632812 9.03125 20.707031 9.027344 20.78125 C 9.019531 20.84375 9.015625 20.910156 9.011719 20.976562 C 8.984375 21.351562 8.957031 21.722656 8.929688 22.097656 C 8.335938 22.097656 7.742188 22.097656 7.132812 22.097656 C 7.203125 21.125 7.203125 21.125 7.253906 20.734375 C 7.265625 20.644531 7.277344 20.550781 7.289062 20.460938 C 7.296875 20.414062 7.304688 20.367188 7.308594 20.320312 C 7.453125 19.265625 7.574219 18.210938 7.695312 17.152344 C 7.726562 16.871094 7.757812 16.589844 7.789062 16.304688 C 7.796875 16.238281 7.804688 16.171875 7.8125 16.101562 C 7.910156 15.230469 8.015625 14.363281 8.125 13.492188 C 8.132812 13.4375 8.136719 13.378906 8.144531 13.320312 C 8.203125 12.855469 8.261719 12.394531 8.320312 11.929688 C 8.328125 11.867188 8.339844 11.800781 8.347656 11.734375 C 8.371094 11.546875 8.394531 11.363281 8.417969 11.179688 C 8.425781 11.125 8.429688 11.066406 8.4375 11.011719 C 8.445312 10.957031 8.453125 10.90625 8.457031 10.855469 C 8.464844 10.808594 8.46875 10.765625 8.476562 10.71875 C 8.5 10.570312 8.527344 10.421875 8.558594 10.273438 Z M 8.558594 10.273438 "/>
<path style=" stroke:none;fill-rule:nonzero;fill:rgb(98.431373%,98.823529%,99.607843%);fill-opacity:1;" d="M 21.085938 10.273438 C 22.3125 10.273438 23.542969 10.273438 24.804688 10.273438 C 24.804688 10.785156 24.804688 11.296875 24.804688 11.820312 C 24.210938 11.820312 23.621094 11.820312 23.007812 11.820312 C 23.007812 12.984375 23.007812 14.152344 23.007812 15.351562 C 23.539062 15.351562 24.070312 15.351562 24.621094 15.351562 C 24.621094 15.859375 24.621094 16.371094 24.621094 16.898438 C 24.089844 16.898438 23.554688 16.898438 23.007812 16.898438 C 23.007812 18.101562 23.007812 19.308594 23.007812 20.550781 C 23.601562 20.550781 24.195312 20.550781 24.804688 20.550781 C 24.804688 21.082031 24.804688 21.613281 24.804688 22.160156 C 23.578125 22.160156 22.351562 22.160156 21.085938 22.160156 C 21.085938 18.238281 21.085938 14.316406 21.085938 10.273438 Z M 21.085938 10.273438 "/>
<path style=" stroke:none;fill-rule:nonzero;fill:rgb(1.960784%,34.117648%,98.039216%);fill-opacity:1;" d="M 16.125 11.699219 C 16.683594 11.699219 16.683594 11.699219 16.835938 11.8125 C 16.992188 12.03125 17 12.15625 17 12.417969 C 17 12.492188 17.003906 12.566406 17.003906 12.640625 C 17.003906 12.722656 17.003906 12.800781 17.003906 12.882812 C 17.003906 12.964844 17.003906 13.046875 17.003906 13.128906 C 17.003906 13.304688 17.003906 13.476562 17.003906 13.648438 C 17.003906 13.871094 17.003906 14.089844 17.003906 14.3125 C 17.007812 14.523438 17.007812 14.734375 17.007812 14.945312 C 17.007812 15.023438 17.007812 15.105469 17.007812 15.183594 C 17.007812 15.257812 17.007812 15.332031 17.007812 15.410156 C 17.007812 15.472656 17.007812 15.539062 17.007812 15.605469 C 16.984375 15.863281 16.925781 16.035156 16.746094 16.214844 C 16.539062 16.214844 16.335938 16.214844 16.125 16.214844 C 16.125 14.726562 16.125 13.234375 16.125 11.699219 Z M 16.125 11.699219 "/>
<path style=" stroke:none;fill-rule:nonzero;fill:rgb(8.627451%,38.431373%,98.039216%);fill-opacity:1;" d="M 9.550781 13.492188 C 9.589844 13.492188 9.632812 13.492188 9.675781 13.492188 C 9.707031 13.96875 9.742188 14.441406 9.777344 14.917969 C 9.789062 15.078125 9.800781 15.238281 9.8125 15.398438 C 9.875 16.269531 9.9375 17.140625 9.984375 18.011719 C 9.738281 18.011719 9.492188 18.011719 9.242188 18.011719 C 9.277344 16.988281 9.34375 15.972656 9.429688 14.953125 C 9.441406 14.808594 9.453125 14.667969 9.464844 14.523438 C 9.492188 14.179688 9.523438 13.835938 9.550781 13.492188 Z M 9.550781 13.492188 "/>
</g>
</svg>

<svg xmlns="http://www.w3.org/2000/svg" width="32" height="32" viewBox="0 0 32 32"><path d="m22.512 1.363.175.075a14.7 14.7 0 0 1 4.31 2.921q.164.153.335.293c.148.13.285.258.414.407q.168.202.348.394c.644.688 1.199 1.48 1.672 2.293l.14.246c1.434 2.43 2.125 5.176 2.114 7.985v.175c-.012 3.32-1.032 6.535-2.997 9.227-.027.035-.05.07-.078.105-.347.473-.722.907-1.129 1.332-.156.16-.156.16-.265.317-.04.05-.04.05-.078.101h-.125a3 3 0 0 1-.063.184c-.09.094-.09.094-.207.191q-.303.257-.59.532c-3.054 2.773-7.332 4.035-11.402 3.851a16.3 16.3 0 0 1-5.598-1.355c-.043-.02-.09-.035-.136-.055-2.258-.98-4.383-2.629-5.88-4.586l-.144-.18C.715 22.543-.379 18.238.074 14.106a16.2 16.2 0 0 1 1.602-5.317l.074-.152c1.008-1.969 2.5-3.825 4.266-5.172.058-.047.058-.047.12-.094C10.81-.239 17.103-.992 22.513 1.363m0 0" style="stroke:none;fill-rule:nonzero;fill:#0054fa;fill-opacity:1"/><path d="M14.203 10.273c3.473 0 3.473 0 4.125.547.563.63.606 1.34.61 2.149v.746q0 .32.003.64v.618q.005.115.004.23c-.004.613-.093 1.293-.492 1.79-.703.679-1.34.648-2.328.648v4.457h-1.922zm-5.644 0h2.23c.188 1.457.371 2.91.531 4.368q.153 1.342.328 2.68.187 1.452.344 2.906l.02.171.035.313c.02.195.043.383.082.578.035.266.027.54.027.809h-1.863q-.035-.469-.078-.938c-.008-.105-.02-.21-.027-.316l-.04-.457c-.003-.07-.003-.07-.011-.145a8 8 0 0 1-.028-.683h-.992l-.058.78c-.004.075-.012.145-.016.22a4 4 0 0 0-.016.222q-.01.096-.015.196l-.082 1.12H7.133c.07-.972.07-.972.12-1.363q.019-.136.036-.273.013-.07.02-.14c.144-1.055.265-2.11.386-3.169l.094-.847.024-.203c.097-.872.203-1.739.312-2.61l.02-.172.175-1.39.028-.196.07-.554c.008-.055.012-.114.02-.168q.012-.081.019-.157l.02-.136q.034-.223.082-.446m0 0" style="stroke:none;fill-rule:nonzero;fill:#fdfdfe;fill-opacity:1"/><path d="M21.086 10.273h3.719v1.547h-1.797v3.532h1.613v1.546h-1.613v3.653h1.797v1.61h-3.72zm0 0" style="stroke:none;fill-rule:nonzero;fill:#fbfcfe;fill-opacity:1"/><path d="M16.125 11.7c.559 0 .559 0 .71.113.157.218.165.343.165.605l.004.223v1.672q.005.315.004.632v.66c-.024.258-.082.43-.262.61h-.621zm0 0" style="stroke:none;fill-rule:nonzero;fill:#0557fa;fill-opacity:1"/><path d="M9.55 13.492h.126q.048.714.101 1.426l.036.48c.062.872.124 1.743.171 2.614h-.742c.035-1.024.102-2.04.188-3.059l.035-.43.086-1.03m0 0" style="stroke:none;fill-rule:nonzero;fill:#1662fa;fill-opacity:1"/></svg>
